X: 1
T: The Carfuffle Shuffle
C: Marianne Taylor
M: 4/4
L: 1/8
W: Play AABBACC...A
%%indent 400
K: C
"Intro"\
[| "C"E>F G2 "G7"G>A B2 | "C"c>G "G7"e>d "C"c2 "G7"z2 |]
"A"\
|:"C"G2 E>F G2 c>B | "F"A2 A>G "Dm"F>E D2 \
| "G"B2 B>c d2 d>c | "G7"B>c B>A G>F E>F |
|  "C"G2 E>F G2 c>B | "F"A2 A>G "Dm"F>G A2 \
| "G7"B>c d2 G>A B2 | "C"c>G "G7"e>d "C"c2 z2 :|
"B"\
|:"Am"A2 A>B c2 A2 | "E7"^G>A B2 E4 \
| "E7"E>^F ^G>A B2 G2 | "Am"A>B c>d e4 |
| "Am"A2 A>B c2 A2 | "E7"^G>A B2 E4 \
| "E7"E>^F ^G>A B2 G2 | "Am"A2 c2 A2 z2 :|
"A"\
[|"C"G2 E>F G2 c>B | "F"A2 A>G "Dm"F>E D2 \
| "G"B2 B>c d2 d>c | "G7"B>c B>A G>F E>F |
|  "C"G2 E>F G2 c>B | "F"A2 A>G "Dm"F>G A2 \
| "G7"B>c d2 G>A B2 | "C"c>G "G7"e>d "C"c2 z2 |]
"C"[K:F]\
|:"F"F>G A2 A>_B c2 | "Bb"B>c d2 d>e f2 \
| "C7"e>f g2 g>a b>a | "C7"(3gag (3fed (3cdc (3BAG |
| "F"F>G A2 A>_B c2 | "Bb"B>c d2 d>e f2 \
| "C7"e>f g>a b>c d>e | "F"f2 a2 f2 z2 :|
